static/img/in-field/sliders-with-labels-oem-dark.svg

<svg width="1087" height="222" viewBox="0 0 1087 222" fill="none" xmlns="http://www.w3.org/2000/svg"><rect width="1087" height="222" fill="#353535"/><path d="M217.159 42V26.2949H218.985V40.3457H225.914V42H217.159ZM235.341 42L234.986 40.3242H234.9C234.313 41.0618 233.726 41.5632 233.138 41.8281C232.558 42.0859 231.831 42.2148 230.958 42.2148C229.79 42.2148 228.874 41.9141 228.208 41.3125C227.549 40.7109 227.219 39.8551 227.219 38.7451C227.219 36.3675 229.121 35.1214 232.924 35.0068L234.922 34.9424V34.2119C234.922 33.2881 234.721 32.6077 234.32 32.1709C233.926 31.7269 233.292 31.5049 232.419 31.5049C231.438 31.5049 230.328 31.8057 229.089 32.4072L228.541 31.043C229.121 30.7279 229.755 30.4808 230.442 30.3018C231.137 30.1227 231.831 30.0332 232.526 30.0332C233.93 30.0332 234.968 30.3447 235.641 30.9678C236.322 31.5908 236.662 32.5898 236.662 33.9648V42H235.341ZM231.312 40.7432C232.422 40.7432 233.292 40.4388 233.923 39.8301C234.56 39.2214 234.879 38.3691 234.879 37.2734V36.21L233.095 36.2852C231.677 36.3353 230.653 36.5573 230.023 36.9512C229.4 37.3379 229.089 37.943 229.089 38.7666C229.089 39.4111 229.282 39.9017 229.669 40.2383C230.063 40.5749 230.61 40.7432 231.312 40.7432ZM245.605 30.0332C247.152 30.0332 248.351 30.5632 249.204 31.623C250.063 32.6758 250.493 34.1689 250.493 36.1025C250.493 38.0361 250.059 39.54 249.193 40.6143C248.333 41.6813 247.137 42.2148 245.605 42.2148C244.839 42.2148 244.137 42.0752 243.499 41.7959C242.869 41.5094 242.339 41.0726 241.91 40.4854H241.781L241.405 42H240.126V25.2852H241.91V29.3457C241.91 30.2552 241.881 31.0716 241.824 31.7949H241.91C242.74 30.6204 243.972 30.0332 245.605 30.0332ZM245.347 31.5264C244.13 31.5264 243.252 31.8773 242.715 32.5791C242.178 33.2738 241.91 34.4482 241.91 36.1025C241.91 37.7568 242.185 38.9421 242.737 39.6582C243.288 40.3672 244.173 40.7217 245.39 40.7217C246.486 40.7217 247.302 40.3242 247.839 39.5293C248.376 38.7272 248.645 37.5778 248.645 36.0811C248.645 34.5485 248.376 33.4062 247.839 32.6543C247.302 31.9023 246.471 31.5264 245.347 31.5264ZM258.372 42.2148C256.632 42.2148 255.257 41.6849 254.247 40.625C253.245 39.5651 252.743 38.0934 252.743 36.21C252.743 34.3122 253.209 32.8047 254.14 31.6875C255.078 30.5703 256.335 30.0117 257.91 30.0117C259.386 30.0117 260.553 30.4987 261.412 31.4727C262.272 32.4395 262.701 33.7178 262.701 35.3076V36.4355H254.591C254.627 37.8177 254.974 38.8669 255.633 39.583C256.299 40.2992 257.234 40.6572 258.437 40.6572C259.704 40.6572 260.958 40.3923 262.196 39.8623V41.4521C261.566 41.7243 260.968 41.9176 260.403 42.0322C259.844 42.154 259.167 42.2148 258.372 42.2148ZM257.889 31.5049C256.944 31.5049 256.188 31.8128 255.622 32.4287C255.064 33.0446 254.734 33.8968 254.634 34.9854H260.789C260.789 33.861 260.539 33.0016 260.037 32.4072C259.536 31.8057 258.82 31.5049 257.889 31.5049ZM267.315 42H265.532V25.2852H267.315V42Z" fill="#fff"/><path d="M239.2 78.4C239.2 76.3 237.5 74.6 235.4 74.6V59.8L224.1 70.5H217.9V77.4V78.5V85.6H224.1L235.4 96.2001V82.2001C237.5 82.2001 239.2 80.5 239.2 78.4Z" fill="#252A2E"/><path d="M239.2 78.4C239.2 76.3 237.5 74.6 235.4 74.6V59.8L224.1 70.5H217.9V77.4V78.5V85.6H224.1L235.4 96.2001V82.2001C237.5 82.2001 239.2 80.5 239.2 78.4Z" fill="#fff"/><path d="M243.1 70.6L240.2 73.5C241.4 74.8 242.2 76.5 242.2 78.4C242.2 80.3 241.4 82 240.2 83.3L243.1 86.2C245.1 84.2 246.3 81.4 246.3 78.4C246.3 75.4 245.1 72.6 243.1 70.6Z" fill="#fff"/><rect x="279.5" y="70.5" width="456" height="15" rx="7.5" fill="#CCC"/><rect x="280" y="71" width="238" height="14" rx="7" fill="#FFCD10"/><circle cx="499" cy="78" r="19" fill="#fff" stroke="gray" stroke-width="2"/><rect x="280" y="71" width="238" height="14" rx="7" stroke="gray" stroke-width="2"/><rect x="279.5" y="70.5" width="456" height="15" rx="7.5" stroke="gray"/><path d="M776.2 78.4C776.2 76.3 774.5 74.6 772.4 74.6V59.8L761.1 70.5H754.9V77.4V78.5V85.6H761.1L772.4 96.2001V82.2001C774.5 82.2001 776.2 80.5 776.2 78.4Z" fill="#fff"/><path d="M789.8 60.9001L786.9 63.8001C790.6 67.5001 792.9 72.7001 792.9 78.4001C792.9 84.1001 790.6 89.2001 786.9 93.0001L789.8 95.9001C794.3 91.4001 797.1 85.2001 797.1 78.4001C797.1 71.6001 794.3 65.4001 789.8 60.9001Z" fill="#fff"/><path d="M785 65.7001L782 68.6001C784.5 71.1001 786 74.5001 786 78.3001C786 82.1001 784.5 85.6001 782 88.1001L784.9 91.0001C788.1 87.8001 790.2 83.3001 790.2 78.3001C790.2 73.3001 788.2 69.0001 785 65.7001Z" fill="#fff"/><path d="M780.1 70.6L777.2 73.5C778.4 74.8 779.2 76.5 779.2 78.4C779.2 80.3 778.4 82 777.2 83.3L780.1 86.2C782.1 84.2 783.3 81.4 783.3 78.4C783.3 75.4 782.1 72.6 780.1 70.6Z" fill="#fff"/><path d="M833.235 87H829.916V77.9121L829.948 76.4189L830.002 74.7861C829.451 75.3376 829.067 75.6992 828.853 75.8711L827.048 77.3213L825.447 75.3232L830.507 71.2949H833.235V87ZM848.489 79.1475C848.489 81.8903 848.038 83.9206 847.136 85.2383C846.241 86.556 844.858 87.2148 842.989 87.2148C841.177 87.2148 839.81 86.5345 838.886 85.1738C837.969 83.8132 837.511 81.8044 837.511 79.1475C837.511 76.376 837.958 74.335 838.854 73.0244C839.749 71.7067 841.127 71.0479 842.989 71.0479C844.801 71.0479 846.169 71.7354 847.093 73.1104C848.024 74.4854 848.489 76.4977 848.489 79.1475ZM840.809 79.1475C840.809 81.0739 840.973 82.4561 841.303 83.2939C841.639 84.1247 842.201 84.54 842.989 84.54C843.763 84.54 844.321 84.1175 844.665 83.2725C845.009 82.4274 845.181 81.0524 845.181 79.1475C845.181 77.221 845.005 75.8389 844.654 75.001C844.311 74.1559 843.756 73.7334 842.989 73.7334C842.209 73.7334 841.65 74.1559 841.313 75.001C840.977 75.8389 840.809 77.221 840.809 79.1475ZM861.058 79.1475C861.058 81.8903 860.606 83.9206 859.704 85.2383C858.809 86.556 857.427 87.2148 855.558 87.2148C853.746 87.2148 852.378 86.5345 851.454 85.1738C850.537 83.8132 850.079 81.8044 850.079 79.1475C850.079 76.376 850.527 74.335 851.422 73.0244C852.317 71.7067 853.696 71.0479 855.558 71.0479C857.369 71.0479 858.737 71.7354 859.661 73.1104C860.592 74.4854 861.058 76.4977 861.058 79.1475ZM853.377 79.1475C853.377 81.0739 853.542 82.4561 853.871 83.2939C854.208 84.1247 854.77 84.54 855.558 84.54C856.331 84.54 856.89 84.1175 857.233 83.2725C857.577 82.4274 857.749 81.0524 857.749 79.1475C857.749 77.221 857.574 75.8389 857.223 75.001C856.879 74.1559 856.324 73.7334 855.558 73.7334C854.777 73.7334 854.218 74.1559 853.882 75.001C853.545 75.8389 853.377 77.221 853.377 79.1475Z" fill="#fff"/><path d="M217.159 138V122.295H218.985V136.346H225.914V138H217.159ZM235.341 138L234.986 136.324H234.9C234.313 137.062 233.726 137.563 233.138 137.828C232.558 138.086 231.831 138.215 230.958 138.215C229.79 138.215 228.874 137.914 228.208 137.312C227.549 136.711 227.219 135.855 227.219 134.745C227.219 132.368 229.121 131.121 232.924 131.007L234.922 130.942V130.212C234.922 129.288 234.721 128.608 234.32 128.171C233.926 127.727 233.292 127.505 232.419 127.505C231.438 127.505 230.328 127.806 229.089 128.407L228.541 127.043C229.121 126.728 229.755 126.481 230.442 126.302C231.137 126.123 231.831 126.033 232.526 126.033C233.93 126.033 234.968 126.345 235.641 126.968C236.322 127.591 236.662 128.59 236.662 129.965V138H235.341ZM231.312 136.743C232.422 136.743 233.292 136.439 233.923 135.83C234.56 135.221 234.879 134.369 234.879 133.273V132.21L233.095 132.285C231.677 132.335 230.653 132.557 230.023 132.951C229.4 133.338 229.089 133.943 229.089 134.767C229.089 135.411 229.282 135.902 229.669 136.238C230.063 136.575 230.61 136.743 231.312 136.743ZM245.605 126.033C247.152 126.033 248.351 126.563 249.204 127.623C250.063 128.676 250.493 130.169 250.493 132.103C250.493 134.036 250.059 135.54 249.193 136.614C248.333 137.681 247.137 138.215 245.605 138.215C244.839 138.215 244.137 138.075 243.499 137.796C242.869 137.509 242.339 137.073 241.91 136.485H241.781L241.405 138H240.126V121.285H241.91V125.346C241.91 126.255 241.881 127.072 241.824 127.795H241.91C242.74 126.62 243.972 126.033 245.605 126.033ZM245.347 127.526C244.13 127.526 243.252 127.877 242.715 128.579C242.178 129.274 241.91 130.448 241.91 132.103C241.91 133.757 242.185 134.942 242.737 135.658C243.288 136.367 244.173 136.722 245.39 136.722C246.486 136.722 247.302 136.324 247.839 135.529C248.376 134.727 248.645 133.578 248.645 132.081C248.645 130.549 248.376 129.406 247.839 128.654C247.302 127.902 246.471 127.526 245.347 127.526ZM258.372 138.215C256.632 138.215 255.257 137.685 254.247 136.625C253.245 135.565 252.743 134.093 252.743 132.21C252.743 130.312 253.209 128.805 254.14 127.688C255.078 126.57 256.335 126.012 257.91 126.012C259.386 126.012 260.553 126.499 261.412 127.473C262.272 128.439 262.701 129.718 262.701 131.308V132.436H254.591C254.627 133.818 254.974 134.867 255.633 135.583C256.299 136.299 257.234 136.657 258.437 136.657C259.704 136.657 260.958 136.392 262.196 135.862V137.452C261.566 137.724 260.968 137.918 260.403 138.032C259.844 138.154 259.167 138.215 258.372 138.215ZM257.889 127.505C256.944 127.505 256.188 127.813 255.622 128.429C255.064 129.045 254.734 129.897 254.634 130.985H260.789C260.789 129.861 260.539 129.002 260.037 128.407C259.536 127.806 258.82 127.505 257.889 127.505ZM267.315 138H265.532V121.285H267.315V138Z" fill="#fff"/><rect x="215.5" y="166.5" width="456" height="15" rx="7.5" fill="#CCC"/><rect x="216" y="167" width="238" height="14" rx="7" fill="#FFCD10"/><circle cx="435" cy="174" r="19" fill="#fff" stroke="#004F83" stroke-width="2"/><rect x="216" y="167" width="238" height="14" rx="7" stroke="gray" stroke-width="2"/><rect x="215.5" y="166.5" width="456" height="15" rx="7.5" stroke="gray"/><path d="M705.235 183H701.916V173.912L701.948 172.419L702.002 170.786C701.451 171.338 701.067 171.699 700.853 171.871L699.048 173.321L697.447 171.323L702.507 167.295H705.235V183ZM720.489 175.147C720.489 177.89 720.038 179.921 719.136 181.238C718.241 182.556 716.858 183.215 714.989 183.215C713.177 183.215 711.81 182.535 710.886 181.174C709.969 179.813 709.511 177.804 709.511 175.147C709.511 172.376 709.958 170.335 710.854 169.024C711.749 167.707 713.127 167.048 714.989 167.048C716.801 167.048 718.169 167.735 719.093 169.11C720.024 170.485 720.489 172.498 720.489 175.147ZM712.809 175.147C712.809 177.074 712.973 178.456 713.303 179.294C713.639 180.125 714.201 180.54 714.989 180.54C715.763 180.54 716.321 180.118 716.665 179.272C717.009 178.427 717.181 177.052 717.181 175.147C717.181 173.221 717.005 171.839 716.654 171.001C716.311 170.156 715.756 169.733 714.989 169.733C714.209 169.733 713.65 170.156 713.313 171.001C712.977 171.839 712.809 173.221 712.809 175.147ZM733.058 175.147C733.058 177.89 732.606 179.921 731.704 181.238C730.809 182.556 729.427 183.215 727.558 183.215C725.746 183.215 724.378 182.535 723.454 181.174C722.537 179.813 722.079 177.804 722.079 175.147C722.079 172.376 722.527 170.335 723.422 169.024C724.317 167.707 725.696 167.048 727.558 167.048C729.369 167.048 730.737 167.735 731.661 169.11C732.592 170.485 733.058 172.498 733.058 175.147ZM725.377 175.147C725.377 177.074 725.542 178.456 725.871 179.294C726.208 180.125 726.77 180.54 727.558 180.54C728.331 180.54 728.89 180.118 729.233 179.272C729.577 178.427 729.749 177.052 729.749 175.147C729.749 173.221 729.574 171.839 729.223 171.001C728.879 170.156 728.324 169.733 727.558 169.733C726.777 169.733 726.218 170.156 725.882 171.001C725.545 171.839 725.377 173.221 725.377 175.147Z" fill="#fff"/><rect x="752" y="146" width="56" height="56" rx="4" fill="#656464"/><path d="M790.867 160.733L769.133 173.933L790.8 187.267L790.867 160.733Z" fill="#fff"/><rect x="816" y="146" width="56" height="56" rx="4" fill="#656464"/><path d="M833.133 187.267L854.867 174.067L833.2 160.733L833.133 187.267Z" fill="#fff"/><circle cx="435" cy="174" r="19" fill="#fff" stroke="#8E8E8F" stroke-width="2"/></svg>

<?xml version="1.0" encoding="utf-8"?>
<!-- Generator: Adobe Illustrator 27.0.0, SVG Export Plug-In . SVG Version: 6.00 Build 0)  -->
<svg version="1.1" id="Layer_1" xmlns="http://www.w3.org/2000/svg" xmlns:xlink="http://www.w3.org/1999/xlink" x="0px" y="0px"
	 viewBox="0 0 1087 222" style="enable-background:new 0 0 1087 222;" xml:space="preserve">
<style type="text/css">
	.st0{fill:#353535;}
	.st1{fill:#FFFFFF;}
	.st2{fill:#252A2E;}
	.st3{fill:#CCCCCC;}
	.st4{fill:#FFCD10;}
	.st5{fill:none;stroke:#808080;stroke-width:2;}
	.st6{fill:none;stroke:#808080;}
	.st7{fill:#FFFFFF;stroke:#004F83;stroke-width:2;}
	.st8{fill:#656464;}
	.st9{fill:#FFFFFF;stroke:#8E8E8F;stroke-width:2;}
	.st10{fill:#FFFFFF;stroke:#808080;stroke-width:2;}
</style>
<rect y="0" class="st0" width="1087" height="222"/>
<path class="st1" d="M217.2,42V26.3h1.8v14.1h6.9V42H217.2z M235.3,42l-0.4-1.7h-0.1c-0.6,0.7-1.2,1.2-1.8,1.5
	c-0.6,0.3-1.3,0.4-2.2,0.4c-1.2,0-2.1-0.3-2.8-0.9c-0.7-0.6-1-1.5-1-2.6c0-2.4,1.9-3.6,5.7-3.7l2-0.1v-0.7c0-0.9-0.2-1.6-0.6-2
	c-0.4-0.4-1-0.7-1.9-0.7c-1,0-2.1,0.3-3.3,0.9l-0.5-1.4c0.6-0.3,1.2-0.6,1.9-0.7c0.7-0.2,1.4-0.3,2.1-0.3c1.4,0,2.4,0.3,3.1,0.9
	c0.7,0.6,1,1.6,1,3v8H235.3z M231.3,40.7c1.1,0,2-0.3,2.6-0.9c0.6-0.6,1-1.5,1-2.6v-1.1l-1.8,0.1c-1.4,0.1-2.4,0.3-3.1,0.7
	c-0.6,0.4-0.9,1-0.9,1.8c0,0.6,0.2,1.1,0.6,1.5C230.1,40.6,230.6,40.7,231.3,40.7z M245.6,30c1.5,0,2.7,0.5,3.6,1.6
	c0.9,1.1,1.3,2.5,1.3,4.5c0,1.9-0.4,3.4-1.3,4.5c-0.9,1.1-2.1,1.6-3.6,1.6c-0.8,0-1.5-0.1-2.1-0.4c-0.6-0.3-1.2-0.7-1.6-1.3h-0.1
	l-0.4,1.5h-1.3V25.3h1.8v4.1c0,0.9,0,1.7-0.1,2.4h0.1C242.7,30.6,244,30,245.6,30z M245.3,31.5c-1.2,0-2.1,0.4-2.6,1.1
	c-0.5,0.7-0.8,1.9-0.8,3.5s0.3,2.8,0.8,3.6c0.6,0.7,1.4,1.1,2.7,1.1c1.1,0,1.9-0.4,2.4-1.2c0.5-0.8,0.8-2,0.8-3.4
	c0-1.5-0.3-2.7-0.8-3.4C247.3,31.9,246.5,31.5,245.3,31.5z M258.4,42.2c-1.7,0-3.1-0.5-4.1-1.6c-1-1.1-1.5-2.5-1.5-4.4
	c0-1.9,0.5-3.4,1.4-4.5c0.9-1.1,2.2-1.7,3.8-1.7c1.5,0,2.6,0.5,3.5,1.5c0.9,1,1.3,2.2,1.3,3.8v1.1h-8.1c0,1.4,0.4,2.4,1,3.1
	c0.7,0.7,1.6,1.1,2.8,1.1c1.3,0,2.5-0.3,3.8-0.8v1.6c-0.6,0.3-1.2,0.5-1.8,0.6C259.8,42.2,259.2,42.2,258.4,42.2z M257.9,31.5
	c-0.9,0-1.7,0.3-2.3,0.9c-0.6,0.6-0.9,1.5-1,2.6h6.2c0-1.1-0.2-2-0.8-2.6C259.5,31.8,258.8,31.5,257.9,31.5z M267.3,42h-1.8V25.3
	h1.8V42z"/>
<path class="st2" d="M239.2,78.4c0-2.1-1.7-3.8-3.8-3.8V59.8l-11.3,10.7h-6.2v6.9v1.1v7.1h6.2l11.3,10.6v-14
	C237.5,82.2,239.2,80.5,239.2,78.4z"/>
<path class="st1" d="M239.2,78.4c0-2.1-1.7-3.8-3.8-3.8V59.8l-11.3,10.7h-6.2v6.9v1.1v7.1h6.2l11.3,10.6v-14
	C237.5,82.2,239.2,80.5,239.2,78.4z"/>
<path class="st1" d="M243.1,70.6l-2.9,2.9c1.2,1.3,2,3,2,4.9s-0.8,3.6-2,4.9l2.9,2.9c2-2,3.2-4.8,3.2-7.8S245.1,72.6,243.1,70.6z"/>
<path class="st3" d="M287,70.5h441c4.1,0,7.5,3.4,7.5,7.5l0,0c0,4.1-3.4,7.5-7.5,7.5H287c-4.1,0-7.5-3.4-7.5-7.5l0,0
	C279.5,73.9,282.9,70.5,287,70.5z"/>
<path class="st4" d="M287,71h224c3.9,0,7,3.1,7,7l0,0c0,3.9-3.1,7-7,7H287c-3.9,0-7-3.1-7-7l0,0C280,74.1,283.1,71,287,71z"/>
<path class="st5" d="M287,71h224c3.9,0,7,3.1,7,7l0,0c0,3.9-3.1,7-7,7H287c-3.9,0-7-3.1-7-7l0,0C280,74.1,283.1,71,287,71z"/>
<path class="st6" d="M287,70.5h441c4.1,0,7.5,3.4,7.5,7.5l0,0c0,4.1-3.4,7.5-7.5,7.5H287c-4.1,0-7.5-3.4-7.5-7.5l0,0
	C279.5,73.9,282.9,70.5,287,70.5z"/>
<path class="st1" d="M776.2,78.4c0-2.1-1.7-3.8-3.8-3.8V59.8l-11.3,10.7h-6.2v6.9v1.1v7.1h6.2l11.3,10.6v-14
	C774.5,82.2,776.2,80.5,776.2,78.4z"/>
<path class="st1" d="M789.8,60.9l-2.9,2.9c3.7,3.7,6,8.9,6,14.6s-2.3,10.8-6,14.6l2.9,2.9c4.5-4.5,7.3-10.7,7.3-17.5
	S794.3,65.4,789.8,60.9z"/>
<path class="st1" d="M785,65.7l-3,2.9c2.5,2.5,4,5.9,4,9.7c0,3.8-1.5,7.3-4,9.8l2.9,2.9c3.2-3.2,5.3-7.7,5.3-12.7S788.2,69,785,65.7
	z"/>
<path class="st1" d="M780.1,70.6l-2.9,2.9c1.2,1.3,2,3,2,4.9s-0.8,3.6-2,4.9l2.9,2.9c2-2,3.2-4.8,3.2-7.8S782.1,72.6,780.1,70.6z"/>
<path class="st1" d="M833.2,87h-3.3v-9.1l0-1.5l0.1-1.6c-0.6,0.6-0.9,0.9-1.1,1.1l-1.8,1.5l-1.6-2l5.1-4h2.7V87z M848.5,79.1
	c0,2.7-0.5,4.8-1.4,6.1c-0.9,1.3-2.3,2-4.1,2c-1.8,0-3.2-0.7-4.1-2c-0.9-1.4-1.4-3.4-1.4-6c0-2.8,0.4-4.8,1.3-6.1
	c0.9-1.3,2.3-2,4.1-2c1.8,0,3.2,0.7,4.1,2.1C848,74.5,848.5,76.5,848.5,79.1z M840.8,79.1c0,1.9,0.2,3.3,0.5,4.1
	c0.3,0.8,0.9,1.2,1.7,1.2c0.8,0,1.3-0.4,1.7-1.3c0.3-0.8,0.5-2.2,0.5-4.1c0-1.9-0.2-3.3-0.5-4.1c-0.3-0.8-0.9-1.3-1.7-1.3
	c-0.8,0-1.3,0.4-1.7,1.3C841,75.8,840.8,77.2,840.8,79.1z M861.1,79.1c0,2.7-0.5,4.8-1.4,6.1c-0.9,1.3-2.3,2-4.1,2
	c-1.8,0-3.2-0.7-4.1-2c-0.9-1.4-1.4-3.4-1.4-6c0-2.8,0.4-4.8,1.3-6.1c0.9-1.3,2.3-2,4.1-2c1.8,0,3.2,0.7,4.1,2.1
	C860.6,74.5,861.1,76.5,861.1,79.1z M853.4,79.1c0,1.9,0.2,3.3,0.5,4.1c0.3,0.8,0.9,1.2,1.7,1.2c0.8,0,1.3-0.4,1.7-1.3
	c0.3-0.8,0.5-2.2,0.5-4.1c0-1.9-0.2-3.3-0.5-4.1c-0.3-0.8-0.9-1.3-1.7-1.3c-0.8,0-1.3,0.4-1.7,1.3C853.5,75.8,853.4,77.2,853.4,79.1
	z"/>
<path class="st1" d="M217.2,138v-15.7h1.8v14.1h6.9v1.7H217.2z M235.3,138l-0.4-1.7h-0.1c-0.6,0.7-1.2,1.2-1.8,1.5
	c-0.6,0.3-1.3,0.4-2.2,0.4c-1.2,0-2.1-0.3-2.8-0.9c-0.7-0.6-1-1.5-1-2.6c0-2.4,1.9-3.6,5.7-3.7l2-0.1v-0.7c0-0.9-0.2-1.6-0.6-2
	c-0.4-0.4-1-0.7-1.9-0.7c-1,0-2.1,0.3-3.3,0.9l-0.5-1.4c0.6-0.3,1.2-0.6,1.9-0.7c0.7-0.2,1.4-0.3,2.1-0.3c1.4,0,2.4,0.3,3.1,0.9
	c0.7,0.6,1,1.6,1,3v8H235.3z M231.3,136.7c1.1,0,2-0.3,2.6-0.9c0.6-0.6,1-1.5,1-2.6v-1.1l-1.8,0.1c-1.4,0.1-2.4,0.3-3.1,0.7
	c-0.6,0.4-0.9,1-0.9,1.8c0,0.6,0.2,1.1,0.6,1.5C230.1,136.6,230.6,136.7,231.3,136.7z M245.6,126c1.5,0,2.7,0.5,3.6,1.6
	c0.9,1.1,1.3,2.5,1.3,4.5c0,1.9-0.4,3.4-1.3,4.5c-0.9,1.1-2.1,1.6-3.6,1.6c-0.8,0-1.5-0.1-2.1-0.4c-0.6-0.3-1.2-0.7-1.6-1.3h-0.1
	l-0.4,1.5h-1.3v-16.7h1.8v4.1c0,0.9,0,1.7-0.1,2.4h0.1C242.7,126.6,244,126,245.6,126z M245.3,127.5c-1.2,0-2.1,0.4-2.6,1.1
	c-0.5,0.7-0.8,1.9-0.8,3.5c0,1.7,0.3,2.8,0.8,3.6c0.6,0.7,1.4,1.1,2.7,1.1c1.1,0,1.9-0.4,2.4-1.2c0.5-0.8,0.8-2,0.8-3.4
	c0-1.5-0.3-2.7-0.8-3.4C247.3,127.9,246.5,127.5,245.3,127.5z M258.4,138.2c-1.7,0-3.1-0.5-4.1-1.6c-1-1.1-1.5-2.5-1.5-4.4
	c0-1.9,0.5-3.4,1.4-4.5c0.9-1.1,2.2-1.7,3.8-1.7c1.5,0,2.6,0.5,3.5,1.5c0.9,1,1.3,2.2,1.3,3.8v1.1h-8.1c0,1.4,0.4,2.4,1,3.1
	c0.7,0.7,1.6,1.1,2.8,1.1c1.3,0,2.5-0.3,3.8-0.8v1.6c-0.6,0.3-1.2,0.5-1.8,0.6C259.8,138.2,259.2,138.2,258.4,138.2z M257.9,127.5
	c-0.9,0-1.7,0.3-2.3,0.9c-0.6,0.6-0.9,1.5-1,2.6h6.2c0-1.1-0.2-2-0.8-2.6C259.5,127.8,258.8,127.5,257.9,127.5z M267.3,138h-1.8
	v-16.7h1.8V138z"/>
<path class="st3" d="M223,166.5h441c4.1,0,7.5,3.4,7.5,7.5l0,0c0,4.1-3.4,7.5-7.5,7.5H223c-4.1,0-7.5-3.4-7.5-7.5l0,0
	C215.5,169.9,218.9,166.5,223,166.5z"/>
<path class="st4" d="M223,167h224c3.9,0,7,3.1,7,7l0,0c0,3.9-3.1,7-7,7H223c-3.9,0-7-3.1-7-7l0,0C216,170.1,219.1,167,223,167z"/>
<circle class="st7" cx="435" cy="174" r="19"/>
<path class="st5" d="M223,167h224c3.9,0,7,3.1,7,7l0,0c0,3.9-3.1,7-7,7H223c-3.9,0-7-3.1-7-7l0,0C216,170.1,219.1,167,223,167z"/>
<path class="st6" d="M223,166.5h441c4.1,0,7.5,3.4,7.5,7.5l0,0c0,4.1-3.4,7.5-7.5,7.5H223c-4.1,0-7.5-3.4-7.5-7.5l0,0
	C215.5,169.9,218.9,166.5,223,166.5z"/>
<path class="st1" d="M705.2,183h-3.3v-9.1l0-1.5l0.1-1.6c-0.6,0.6-0.9,0.9-1.1,1.1l-1.8,1.4l-1.6-2l5.1-4h2.7V183z M720.5,175.1
	c0,2.7-0.5,4.8-1.4,6.1c-0.9,1.3-2.3,2-4.1,2c-1.8,0-3.2-0.7-4.1-2c-0.9-1.4-1.4-3.4-1.4-6c0-2.8,0.4-4.8,1.3-6.1
	c0.9-1.3,2.3-2,4.1-2c1.8,0,3.2,0.7,4.1,2.1C720,170.5,720.5,172.5,720.5,175.1z M712.8,175.1c0,1.9,0.2,3.3,0.5,4.1
	c0.3,0.8,0.9,1.2,1.7,1.2c0.8,0,1.3-0.4,1.7-1.3c0.3-0.8,0.5-2.2,0.5-4.1c0-1.9-0.2-3.3-0.5-4.1c-0.3-0.8-0.9-1.3-1.7-1.3
	c-0.8,0-1.3,0.4-1.7,1.3C713,171.8,712.8,173.2,712.8,175.1z M733.1,175.1c0,2.7-0.5,4.8-1.4,6.1c-0.9,1.3-2.3,2-4.1,2
	c-1.8,0-3.2-0.7-4.1-2c-0.9-1.4-1.4-3.4-1.4-6c0-2.8,0.4-4.8,1.3-6.1c0.9-1.3,2.3-2,4.1-2c1.8,0,3.2,0.7,4.1,2.1
	C732.6,170.5,733.1,172.5,733.1,175.1z M725.4,175.1c0,1.9,0.2,3.3,0.5,4.1c0.3,0.8,0.9,1.2,1.7,1.2c0.8,0,1.3-0.4,1.7-1.3
	c0.3-0.8,0.5-2.2,0.5-4.1c0-1.9-0.2-3.3-0.5-4.1c-0.3-0.8-0.9-1.3-1.7-1.3c-0.8,0-1.3,0.4-1.7,1.3
	C725.5,171.8,725.4,173.2,725.4,175.1z"/>
<path class="st8" d="M756,146h48c2.2,0,4,1.8,4,4v48c0,2.2-1.8,4-4,4h-48c-2.2,0-4-1.8-4-4v-48C752,147.8,753.8,146,756,146z"/>
<path class="st1" d="M790.9,160.7l-21.7,13.2l21.7,13.3L790.9,160.7z"/>
<path class="st8" d="M820,146h48c2.2,0,4,1.8,4,4v48c0,2.2-1.8,4-4,4h-48c-2.2,0-4-1.8-4-4v-48C816,147.8,817.8,146,820,146z"/>
<path class="st1" d="M833.1,187.3l21.7-13.2l-21.7-13.3L833.1,187.3z"/>
<circle class="st9" cx="435" cy="174" r="19"/>
<circle class="st10" cx="507.5" cy="78" r="19"/>
</svg>
